assets/images/icons/warning-bubble.svg

<svg width="20" height="20" viewBox="0 0 20 20" fill="none" xmlns="http://www.w3.org/2000/svg">
<path fill-rule="evenodd" clip-rule="evenodd" d="M11.1689 0.763359C10.9278 0.290991 10.4822 0 10 0C9.51777 0 9.07217 0.290991 8.83105 0.763359L0.180837 17.7099C-0.0602789 18.1823 -0.0602789 18.7643 0.180837 19.2366C0.421953 19.709 0.867553 20 1.34978 20H18.6502C19.1324 20 19.578 19.709 19.8192 19.2366C20.0603 18.7643 20.0603 18.1823 19.8192 17.7099L11.1689 0.763359Z" fill="#FF9000"/>
<path d="M10.7992 7.20002C10.7992 6.7582 10.441 6.40002 9.99922 6.40002C9.55739 6.40002 9.19922 6.7582 9.19922 7.20002V13.6C9.19922 14.0419 9.55739 14.4 9.99922 14.4C10.441 14.4 10.7992 14.0419 10.7992 13.6V7.20002Z" fill="white"/>
<path d="M9.99922 16C10.441 16 10.7992 16.3582 10.7992 16.8V16.88C10.7992 17.3219 10.441 17.68 9.99922 17.68C9.55739 17.68 9.19922 17.3219 9.19922 16.88V16.8C9.19922 16.3582 9.55739 16 9.99922 16Z" fill="white"/>
</svg>

<svg width="20" height="20" fill="none" xmlns="http://www.w3.org/2000/svg"><path fill-rule="evenodd" clip-rule="evenodd" d="M11.169.763C10.928.291 10.482 0 10 0s-.928.291-1.169.763L.181 17.71a1.702 1.702 0 0 0 0 1.527c.241.472.687.763 1.169.763h17.3c.482 0 .928-.291 1.17-.763a1.702 1.702 0 0 0 0-1.527L11.168.763z" fill="#FF9000"/><path d="M10.8 7.2a.8.8 0 0 0-1.6 0v6.4a.8.8 0 1 0 1.6 0V7.2zM10 16a.8.8 0 0 1 .8.8v.08a.8.8 0 1 1-1.6 0v-.08a.8.8 0 0 1 .8-.8z" fill="#fff"/></svg>
